X:274
M:4/4
L:1/4
K:C
D2 F G | A G c B | A3 A | c B A G | (F E) D2 | D2 F G | A G c B | A3 A | c B A G | (F E) D2 | z D G G | E A A G | A3 A | d d e3/2 c/ | (d/ c/ B) A2 | z A c B | A G A F | E3 D | F G A3/2 F/ | (G/F/ E) D2 | z !sintro!d d d | e d (c B) | A4 !eintro!|]
